icons/layout-6-fill.svg

<svg viewBox="0 0 24 24" fill="currentColor" xmlns="http://www.w3.org/2000/svg">
    <path d="M15 10V21H3C2.44772 21 2 20.5523 2 20V10H15ZM22 10V20C22 20.5523 21.5523 21 21 21H17V10H22ZM21 3C21.5523 3 22 3.44772 22 4V8H2V4C2 3.44772 2.44772 3 3 3H21Z"/>
</svg>

<svg xmlns="http://www.w3.org/2000/svg" viewBox="0 0 24 24">
    <g>
        <path fill="none" d="M0 0h24v24H0z"/>
        <path d="M15 10v11H3a1 1 0 0 1-1-1V10h13zm7 0v10a1 1 0 0 1-1 1h-4V10h5zm-1-7a1 1 0 0 1 1 1v4H2V4a1 1 0 0 1 1-1h18z"/>
    </g>
</svg>
